X:1
T:The Godfather
T:The Godfather Love Theme
T:Violin
T:Arranger : Abdullah Yıldız
T:Composer : Nino Rota
L:1/8
Q:1/4=61
M:4/4
K:Cb
V:1 treble nm="Keman" snm="Kem."
V:1
 z EAc BAcA | BAFG E4 | z EAc BAcA | BAFE D4 | z DF=G B3 z | z DF=G A4 | z A,CG FEGF | %7
 FEE=G, A,4 |: z AA=G _G4 | B2 AF E4 |1 z EGE D4 | z DF=D E4 :|2 z[Q:1/4=53] EGE D4 | %13
 z[Q:1/4=42] DF=D E4 |] %14

